svg/fluentui-system-icons/ic_fluent_building_desktop_16_regular.svg

<svg width="16" height="16" viewBox="0 0 16 16" fill="none" xmlns="http://www.w3.org/2000/svg">
<path d="M3.00166 2.24995C3.00169 2.1119 3.11361 2 3.25166 2H7.75488C7.89305 2 8.00503 2.1121 8.00488 2.25028L8.00265 4.2486C8.00187 4.93951 8.56174 5.5 9.25264 5.5H9.48054L9.5 5.49489V5.5H9.75C9.88807 5.5 10 5.61193 10 5.75V6H11V5.75C11 5.73278 10.9996 5.71564 10.999 5.69859C10.972 5.03202 10.4232 4.5 9.75008 4.5H9.25264C9.11446 4.5 9.00249 4.3879 9.00264 4.24972L9.00487 2.2514C9.00565 1.5605 8.44578 1 7.75488 1H3.25166C2.5614 1 2.0018 1.5595 2.00166 2.24976L2 10.7498C1.99987 11.4402 2.55955 12 3.25 12H5.10352C5.03608 11.7616 5 11.51 5 11.25V11H3.25C3.11191 11 2.99997 10.888 3 10.75L3.00166 2.24995ZM4.4999 4C4.77604 4 4.9999 3.77614 4.9999 3.5C4.9999 3.22386 4.77604 3 4.4999 3C4.22376 3 3.9999 3.22386 3.9999 3.5C3.9999 3.77614 4.22376 4 4.4999 4ZM4.9999 5.5C4.9999 5.77614 4.77604 6 4.4999 6C4.22376 6 3.9999 5.77614 3.9999 5.5C3.9999 5.22386 4.22376 5 4.4999 5C4.77604 5 4.9999 5.22386 4.9999 5.5ZM4.4999 8C4.77604 8 4.9999 7.77614 4.9999 7.5C4.9999 7.22386 4.77604 7 4.4999 7C4.22376 7 3.9999 7.22386 3.9999 7.5C3.9999 7.77614 4.22376 8 4.4999 8ZM6.9999 3.5C6.9999 3.77614 6.77604 4 6.4999 4C6.22376 4 5.9999 3.77614 5.9999 3.5C5.9999 3.22386 6.22376 3 6.4999 3C6.77604 3 6.9999 3.22386 6.9999 3.5ZM6.4999 6C6.77604 6 6.9999 5.77614 6.9999 5.5C6.9999 5.22386 6.77604 5 6.4999 5C6.22376 5 5.9999 5.22386 5.9999 5.5C5.9999 5.77614 6.22376 6 6.4999 6ZM6 8.75C6 7.7835 6.7835 7 7.75 7H13.25C14.2165 7 15 7.7835 15 8.75V11.25C15 12.2165 14.2165 13 13.25 13H12V14H12.5C12.7761 14 13 14.2239 13 14.5C13 14.7761 12.7761 15 12.5 15H8.5C8.22386 15 8 14.7761 8 14.5C8 14.2239 8.22386 14 8.5 14H9V13H7.75C6.7835 13 6 12.2165 6 11.25V8.75ZM7.75 12H13.25C13.6642 12 14 11.6642 14 11.25V8.75C14 8.33579 13.6642 8 13.25 8H7.75C7.33579 8 7 8.33579 7 8.75V11.25C7 11.6642 7.33579 12 7.75 12ZM11 14V13H10V14H11Z" fill="#212121"/>
</svg>

<svg xmlns="http://www.w3.org/2000/svg" width="16" height="16"><path d="M3.002 2.25a.25.25 0 0 1 .25-.25h4.503a.25.25 0 0 1 .25.25l-.002 2a1.25 1.25 0 0 0 1.25 1.251h.228l.019-.005V5.5h.25a.25.25 0 0 1 .25.25V6h1v-.25l-.001-.051A1.25 1.25 0 0 0 9.75 4.5h-.497a.25.25 0 0 1-.25-.25l.002-1.999c0-.69-.56-1.251-1.25-1.251H3.252c-.69 0-1.25.56-1.25 1.25L2 10.75c0 .69.56 1.25 1.25 1.25h1.854A2.752 2.752 0 0 1 5 11.25V11H3.25a.25.25 0 0 1-.25-.25l.002-8.5ZM4.5 4a.5.5 0 1 0 0-1 .5.5 0 0 0 0 1ZM5 5.5a.5.5 0 1 1-1 0 .5.5 0 0 1 1 0ZM4.5 8a.5.5 0 1 0 0-1 .5.5 0 0 0 0 1ZM7 3.5a.5.5 0 1 1-1 0 .5.5 0 0 1 1 0ZM6.5 6a.5.5 0 1 0 0-1 .5.5 0 0 0 0 1ZM6 8.75C6 7.784 6.784 7 7.75 7h5.5c.966 0 1.75.784 1.75 1.75v2.5A1.75 1.75 0 0 1 13.25 13H12v1h.5a.5.5 0 0 1 0 1h-4a.5.5 0 0 1 0-1H9v-1H7.75A1.75 1.75 0 0 1 6 11.25v-2.5ZM7.75 12h5.5a.75.75 0 0 0 .75-.75v-2.5a.75.75 0 0 0-.75-.75h-5.5a.75.75 0 0 0-.75.75v2.5c0 .414.336.75.75.75ZM11 14v-1h-1v1h1Z"/></svg>
